svg/logo/pinterest_line.svg

<?xml version="1.0" encoding="UTF-8"?>
<svg width="24px" height="24px" viewBox="0 0 24 24" version="1.1" xmlns="http://www.w3.org/2000/svg" xmlns:xlink="http://www.w3.org/1999/xlink">
    <title>pinterest_line</title>
    <g id="页面-1" stroke="none" stroke-width="1" fill="none" fill-rule="evenodd">
        <g id="Brand" transform="translate(-576.000000, -0.000000)">
            <g id="pinterest_line" transform="translate(576.000000, 0.000000)">
                 <path d="M24,0 L24,24 L0,24 L0,0 L24,0 Z M12.5934901,23.257841 L12.5819402,23.2595131 L12.5108777,23.2950439 L12.4918791,23.2987469 L12.4918791,23.2987469 L12.4767152,23.2950439 L12.4056548,23.2595131 C12.3958229,23.2563662 12.3870493,23.2590235 12.3821421,23.2649074 L12.3780323,23.275831 L12.360941,23.7031097 L12.3658947,23.7234994 L12.3769048,23.7357139 L12.4804777,23.8096931 L12.4953491,23.8136134 L12.4953491,23.8136134 L12.5071152,23.8096931 L12.6106902,23.7357139 L12.6232938,23.7196733 L12.6232938,23.7196733 L12.6266527,23.7031097 L12.609561,23.275831 C12.6075724,23.2657013 12.6010112,23.2592993 12.5934901,23.257841 L12.5934901,23.257841 Z M12.8583906,23.1452862 L12.8445485,23.1473072 L12.6598443,23.2396597 L12.6498822,23.2499052 L12.6498822,23.2499052 L12.6471943,23.2611114 L12.6650943,23.6906389 L12.6699349,23.7034178 L12.6699349,23.7034178 L12.678386,23.7104931 L12.8793402,23.8032389 C12.8914285,23.8068999 12.9022333,23.8029875 12.9078286,23.7952264 L12.9118235,23.7811639 L12.8776777,23.1665331 C12.8752882,23.1545897 12.8674102,23.1470016 12.8583906,23.1452862 L12.8583906,23.1452862 Z M12.1430473,23.1473072 C12.1332178,23.1423925 12.1221763,23.1452606 12.1156365,23.1525954 L12.1099173,23.1665331 L12.0757714,23.7811639 C12.0751323,23.7926639 12.0828099,23.8018602 12.0926481,23.8045676 L12.108256,23.8032389 L12.3092106,23.7104931 L12.3186497,23.7024347 L12.3186497,23.7024347 L12.3225043,23.6906389 L12.340401,23.2611114 L12.337245,23.2485176 L12.337245,23.2485176 L12.3277531,23.2396597 L12.1430473,23.1473072 Z" id="MingCute" fill-rule="nonzero"></path>
                <path d="M12,2 C6.47715,2 2,6.47715 2,12 C2,17.5228 6.47715,22 12,22 C17.5228,22 22,17.5228 22,12 C22,6.47715 17.5228,2 12,2 Z M4,12 C4,7.58172 7.58172,4 12,4 C16.4183,4 20,7.58172 20,12 C20,16.4183 16.4183,20 12,20 C11.3372,20 10.6932,19.9194 10.0773,19.7674 L10.7951,16.3928 C11.4818,16.989 12.3353,17.216 13.1538,17.201 C14.0524,17.1845 14.9545,16.8807 15.7086,16.4062 C16.4608,15.9329 17.133,15.2467 17.5009,14.3991 C17.8222,13.6631 18,12.851 18,12 C18,8.68629 15.3137,6 12,6 C8.68629,6 6,8.68629 6,12 C6,12.8515 6.17797,13.664 6.49969,14.4004 C6.72081,14.9065 7.31033,15.1375 7.81642,14.9164 C8.3225,14.6952 8.55352,14.1057 8.3324,13.5996 C8.11893,13.111 8,12.5707 8,12 C8,9.79086 9.79086,8 12,8 C14.2091,8 16,9.79086 16,12 C16,13.0949 15.5909,14.1173 14.6435,14.7134 C14.1552,15.0207 13.6041,15.1924 13.1172,15.2013 C12.6405,15.2101 12.2746,15.0669 12.022,14.802 C11.7738,14.5416 11.5009,14.0402 11.5009,13.0999 C11.5009,12.5 11.7296,12 12.0044,10.708 C12.1193,10.1678 11.7746,9.63676 11.2344,9.52185 C10.6942,9.40693 10.1631,9.7517 10.0482,10.2919 L8.18826,19.0353 C5.69362,17.6808 4,15.0382 4,12 Z" id="形状" fill="#09244B"></path>
            </g>
        </g>
    </g>
</svg>

<svg xmlns="http://www.w3.org/2000/svg" width="24" height="24"><g fill="none" fill-rule="evenodd"><path d="M24 0v24H0V0h24ZM12.593 23.258l-.011.002-.071.035-.02.004-.014-.004-.071-.035c-.01-.004-.019-.001-.024.005l-.004.01-.017.428.005.02.01.013.104.074.015.004.012-.004.104-.074.012-.016.004-.017-.017-.427c-.002-.01-.009-.017-.017-.018Zm.265-.113-.013.002-.185.093-.01.01-.003.011.018.43.005.012.008.007.201.093c.012.004.023 0 .029-.008l.004-.014-.034-.614c-.003-.012-.01-.02-.02-.022Zm-.715.002a.023.023 0 0 0-.027.006l-.006.014-.034.614c0 .012.007.02.017.024l.015-.002.201-.093.01-.008.004-.011.017-.43-.003-.012-.01-.01-.184-.092Z"/><path fill="#09244B" d="M12 2C6.477 2 2 6.477 2 12s4.477 10 10 10 10-4.477 10-10S17.523 2 12 2ZM4 12a8 8 0 1 1 6.077 7.767l.718-3.374c.687.596 1.54.823 2.359.808.898-.017 1.8-.32 2.555-.795.752-.473 1.424-1.16 1.792-2.007A6 6 0 1 0 6.5 14.4a1 1 0 1 0 1.832-.8A4 4 0 1 1 16 12c0 1.095-.41 2.117-1.357 2.713-.488.308-1.039.48-1.526.488-.477.01-.842-.134-1.095-.399-.248-.26-.521-.762-.521-1.702 0-.6.229-1.1.503-2.392a1 1 0 1 0-1.956-.416l-1.86 8.743A7.998 7.998 0 0 1 4 12Z"/></g></svg>
